packages/blockchain-info-components/src/Images/img/cart-green.svg

<svg fill="none" height="24" viewBox="0 0 24 24" width="24" xmlns="http://www.w3.org/2000/svg"><path d="m7 18c-1.1 0-1.99.9-1.99 2s.89 2 1.99 2 2-.9 2-2-.9-2-2-2zm-6-16v2h2l3.6 7.59-1.35 2.45c-.16.28-.25.61-.25.96 0 1.1.9 2 2 2h12v-2h-11.58c-.14 0-.25-.11-.25-.25l.03-.12.9-1.63h7.45c.75 0 1.41-.41 1.75-1.03l3.58-6.49c.08-.14.12-.31.12-.48 0-.55-.45-1-1-1h-14.79l-.94-2zm16 16c-1.1 0-1.99.9-1.99 2s.89 2 1.99 2 2-.9 2-2-.9-2-2-2z" fill="#00994c"/></svg>

<svg width="24" height="24" viewBox="0 0 24 24" fill="none" xmlns="http://www.w3.org/2000/svg">
<path d="M7 18C5.9 18 5.01 18.9 5.01 20C5.01 21.1 5.9 22 7 22C8.1 22 9 21.1 9 20C9 18.9 8.1 18 7 18ZM1 2V4H3L6.6 11.59L5.25 14.04C5.09 14.32 5 14.65 5 15C5 16.1 5.9 17 7 17H19V15H7.42C7.28 15 7.17 14.89 7.17 14.75L7.2 14.63L8.1 13H15.55C16.3 13 16.96 12.59 17.3 11.97L20.88 5.48C20.96 5.34 21 5.17 21 5C21 4.45 20.55 4 20 4H5.21L4.27 2H1ZM17 18C15.9 18 15.01 18.9 15.01 20C15.01 21.1 15.9 22 17 22C18.1 22 19 21.1 19 20C19 18.9 18.1 18 17 18Z" fill="#00994C"/>
</svg>
